public/assets/landing_page_images/features/Transportation Module.svg

<?xml version="1.0" encoding="UTF-8" standalone="no"?>
<!-- Created with Inkscape (http://www.inkscape.org/) -->

<svg
   width="72"
   height="72"
   viewBox="0 0 72 72"
   version="1.1"
   id="svg1"
   xmlns="http://www.w3.org/2000/svg"
   xmlns:svg="http://www.w3.org/2000/svg">
  <defs
     id="defs1" />
  <g
     id="layer1">
    <path
       style="fill:#860626;fill-opacity:1;fill-rule:evenodd;stroke:none"
       d="m 47.680888,71.970541 c -1.85231,-0.30228 -3.288796,-1.927 -3.288796,-3.85399 v -3.96734 c 0,-0.60455 0.491426,-1.09574 1.096266,-1.09574 0.60483,0 1.09626,0.49119 1.09626,1.09574 v 3.96734 c 0,0.90682 0.75605,1.70029 1.7011,1.70029 h 7.10682 c 0.90725,0 1.7011,-0.79347 1.7011,-1.70029 v -3.96734 c 0,-0.60455 0.49143,-1.09574 1.09626,-1.09574 0.60484,0 1.09627,0.49119 1.09627,1.09574 v 3.96734 c 0,1.92699 -1.43649,3.55171 -3.3266,3.85399 z"
       id="path1-3" />
    <path
       style="fill:#860626;fill-opacity:1;fill-rule:evenodd;stroke:none"
       d="m 16.078234,71.970541 c -1.852309,-0.30228 -3.288793,-1.927 -3.288793,-3.85399 v -3.96734 c 0,-0.60455 0.491429,-1.09574 1.096264,-1.09574 0.604836,0 1.096265,0.49119 1.096265,1.09574 v 3.96734 c 0,0.90682 0.756044,1.70029 1.701099,1.70029 h 7.069014 c 0.945056,0 1.738902,-0.79347 1.738902,-1.70029 v -3.96734 c 0,-0.60455 0.491429,-1.09574 1.096264,-1.09574 0.604836,0 1.096265,0.49119 1.096265,1.09574 v 3.96734 c 0,1.92699 -1.436485,3.55171 -3.326595,3.85399 z"
       id="path2-9" />
    <path
       style="fill:#860626;fill-opacity:1;fill-rule:evenodd;stroke:none"
       d="M 57.849678,65.244951 H 14.188123 c -2.948573,0 -5.330112,-2.3804 -5.330112,-5.28978 v -29.92507 c 0,-0.60455 0.491429,-1.09574 1.096264,-1.09574 0.604836,0 1.096264,0.49119 1.096264,1.09574 v 29.92507 c 0,1.70028 1.398682,3.0983 3.137584,3.0983 h 43.661555 c 1.7389,0 3.13759,-1.39802 3.13759,-3.0983 V 11.251362 c 0,-1.738073 -1.39869,-3.136087 -3.13759,-3.136087 H 14.188123 c -1.738902,0 -3.137584,1.398014 -3.137584,3.136087 v 13.866793 c 0,0.604547 -0.491428,1.095741 -1.096264,1.095741 -0.604835,0 -1.096264,-0.491194 -1.096264,-1.095741 V 11.251362 c 0,-2.947166 2.381539,-5.32757 5.330112,-5.32757 h 43.661555 c 2.94858,0 5.33012,2.380404 5.33012,5.32757 v 48.703809 c 0,2.94716 -2.38154,5.32757 -5.33012,5.32757 z"
       id="path3-3" />
    <path
       style="fill:#860626;fill-opacity:1;fill-rule:evenodd;stroke:none"
       d="m 53.162208,8.115275 c -0.60484,0 -1.09627,-0.491195 -1.09627,-1.095742 V 3.921231 c 0,-0.906821 -0.75604,-1.700288 -1.7011,-1.700288 H 21.710764 c -0.945056,0 -1.7011,0.793467 -1.7011,1.700288 v 3.098302 c 0,0.604547 -0.491429,1.095742 -1.096264,1.095742 -0.642638,0 -1.134067,-0.491195 -1.134067,-1.095742 V 3.921231 c 0,-2.153698 1.776705,-3.891771 3.931431,-3.891771 h 28.654074 c 2.15473,0 3.89363,1.775857 3.89363,3.891771 v 3.098302 c 0,0.604547 -0.49143,1.095742 -1.09626,1.095742 z"
       id="path4-9" />
    <path
       style="fill:#860626;fill-opacity:1;fill-rule:evenodd;stroke:none"
       d="M 56.450998,42.650011 H 15.586805 c -1.398682,0 -2.532748,-1.09574 -2.532748,-2.49375 V 16.84342 c 0,-1.398015 1.134066,-2.493756 2.532748,-2.493756 h 40.864193 c 1.39868,0 2.49495,1.095741 2.49495,2.493756 v 23.312841 c 0,1.36023 -1.09627,2.49375 -2.49495,2.49375 z M 15.586805,16.541147 c -0.189011,0 -0.302418,0.151136 -0.302418,0.302273 v 23.312841 c 0,0.18892 0.113407,0.30227 0.302418,0.30227 h 40.864193 c 0.18901,0 0.30242,-0.11335 0.30242,-0.30227 V 16.84342 c 0,-0.151137 -0.11341,-0.302273 -0.30242,-0.302273 z"
       id="path5-6" />
    <path
       style="fill:#860626;fill-opacity:1;fill-rule:evenodd;stroke:none"
       d="m 54.220668,11.251362 c 0,0.566762 -0.45363,1.020172 -1.05846,1.020172 -0.56704,0 -1.05846,-0.45341 -1.05846,-1.020172 0,-0.604547 0.49142,-1.057958 1.05846,-1.057958 0.60483,0 1.05846,0.453411 1.05846,1.057958 z"
       id="path6-7" />
    <path
       style="fill:#860626;fill-opacity:1;fill-rule:evenodd;stroke:none"
       d="m 19.93406,11.251362 c 0,0.566762 -0.453627,1.020172 -1.058462,1.020172 -0.567034,0 -1.02066,-0.45341 -1.02066,-1.020172 0,-0.604547 0.453626,-1.057958 1.02066,-1.057958 0.604835,0 1.058462,0.453411 1.058462,1.057958 z"
       id="path7-9" />
    <path
       style="fill:#860626;fill-opacity:1;fill-rule:evenodd;stroke:none"
       d="M 47.227258,12.347103 H 24.810545 c -0.604835,0 -1.096264,-0.491195 -1.096264,-1.095741 0,-0.642332 0.491429,-1.095742 1.096264,-1.095742 h 22.416713 c 0.60484,0 1.09626,0.45341 1.09626,1.095742 0,0.604546 -0.49142,1.095741 -1.09626,1.095741 z"
       id="path8-9" />
    <path
       style="fill:#860626;fill-opacity:1;fill-rule:evenodd;stroke:none"
       d="M 43.67385,58.519371 H 28.363953 c -0.756044,0 -1.474286,-0.45341 -1.776704,-1.17131 l -3.477803,-7.85911 c -0.264616,-0.56676 -0.189011,-1.28466 0.151209,-1.81364 0.378022,-0.56676 0.982857,-0.90682 1.625495,-0.90682 h 12.928357 c 0.604835,0 1.096264,0.49119 1.096264,1.09574 0,0.64233 -0.491429,1.09574 -1.096264,1.09574 H 25.301974 l 3.250991,7.36792 h 14.969676 l 3.250987,-7.36792 h -4.044833 c -0.604836,0 -1.096264,-0.45341 -1.096264,-1.09574 0,-0.60455 0.491428,-1.09574 1.096264,-1.09574 h 4.422863 c 0.68044,0 1.28527,0.34006 1.62549,0.90682 0.37802,0.52898 0.45363,1.20909 0.15121,1.81364 l -3.44,7.85911 c -0.30242,0.7179 -1.020661,1.17131 -1.776706,1.17131 z"
       id="path9-7" />
    <path
       style="fill:#860626;fill-opacity:1;fill-rule:evenodd;stroke:none"
       d="m 62.083528,58.519371 h -11.07605 c -0.49143,0 -0.90725,-0.22671 -1.17187,-0.60455 -0.26461,-0.41563 -0.30241,-0.90682 -0.1134,-1.32245 l 2.23033,-5.13864 c 0.30242,-0.79347 1.05846,-1.28466 1.89011,-1.28466 h 8.24088 c 0.60484,0 1.09626,0.49119 1.09626,1.13352 0,0.60455 -0.49142,1.09574 -1.09626,1.09574 h -8.16528 l -1.7011,3.92956 h 9.86638 c 0.60484,0 1.09626,0.49119 1.09626,1.09574 0,0.60454 -0.49142,1.09574 -1.09626,1.09574 z"
       id="path10-6" />
    <path
       style="fill:#860626;fill-opacity:1;fill-rule:evenodd;stroke:none"
       d="M 21.068126,58.519371 H 9.954275 c -0.604835,0 -1.096264,-0.4912 -1.096264,-1.09574 0,-0.60455 0.491429,-1.09574 1.096264,-1.09574 h 9.866378 l -1.7011,-3.92956 H 9.954275 c -0.604835,0 -1.096264,-0.49119 -1.096264,-1.09574 0,-0.64233 0.491429,-1.13352 1.096264,-1.13352 h 8.240883 c 0.831649,0 1.587693,0.52897 1.927913,1.28466 l 2.192528,5.13864 c 0.189011,0.41563 0.151209,0.90682 -0.113406,1.32245 -0.264616,0.37784 -0.68044,0.60455 -1.134067,0.60455 z"
       id="path11-9" />
    <path
       style="fill:#860626;fill-opacity:1;fill-rule:evenodd;stroke:none"
       d="m 69.946388,31.428111 h -2.23033 c -1.17187,0 -2.07912,-0.9446 -2.07912,-2.07813 V 15.445405 c 0,-0.604546 0.49143,-1.095741 1.09626,-1.095741 h 3.21319 c 1.02066,0 1.85231,0.7179 2.04132,1.662504 v 13.753443 c -0.18901,0.9446 -1.02066,1.6625 -2.04132,1.6625 z m -2.11692,-2.19148 h 2.00352 V 16.541147 h -2.00352 z"
       id="path12-3" />
    <path
       style="fill:#860626;fill-opacity:1;fill-rule:evenodd;stroke:none"
       d="m 66.733198,16.541147 h -4.64967 c -0.60484,0 -1.09626,-0.491195 -1.09626,-1.095742 0,-0.604546 0.49142,-1.095741 1.09626,-1.095741 h 4.64967 c 0.60484,0 1.09627,0.491195 1.09627,1.095741 0,0.604547 -0.49143,1.095742 -1.09627,1.095742 z"
       id="path13-5" />
    <path
       style="fill:#860626;fill-opacity:1;fill-rule:evenodd;stroke:none"
       d="M 4.359547,31.428111 H 2.091414 c -1.134066,0 -2.079121,-0.9446 -2.079121,-2.07813 V 16.427794 c 0,-1.133525 0.945055,-2.07813 2.079121,-2.07813 h 3.213189 c 0.642637,0 1.096264,0.491195 1.096264,1.095741 v 13.904576 c 0,1.13353 -0.907253,2.07813 -2.04132,2.07813 z m -2.154726,-2.19148 h 2.04132 V 16.541147 h -2.04132 z"
       id="path14-7" />
    <path
       style="fill:#860626;fill-opacity:1;fill-rule:evenodd;stroke:none"
       d="m 9.954275,16.541147 h -4.61187 c -0.604836,0 -1.096264,-0.491195 -1.096264,-1.095742 0,-0.604546 0.491428,-1.095741 1.096264,-1.095741 h 4.61187 c 0.604836,0 1.096264,0.491195 1.096264,1.095741 0,0.604547 -0.491428,1.095742 -1.096264,1.095742 z"
       id="path15-6" />
    <path
       style="fill:#860626;fill-opacity:1;fill-rule:evenodd;stroke:none"
       d="m 40.914289,53.758561 h -9.752972 c -0.642637,0 -1.134066,-0.49119 -1.134066,-1.09574 0,-0.60455 0.491429,-1.09574 1.134066,-1.09574 h 9.752972 c 0.604835,0 1.096264,0.49119 1.096264,1.09574 0,0.60455 -0.491429,1.09574 -1.096264,1.09574 z"
       id="path16-6" />
  </g>
</svg>

<svg width="73" height="73" viewBox="0 0 73 73" fill="none" xmlns="http://www.w3.org/2000/svg">
<g clip-path="url(#clip0_1833_1548)">
<path d="M55.3958 72.045H48.3047C46.1474 72.045 44.3995 70.2972 44.3995 68.1399V64.2048C44.3995 63.5956 44.8889 63.1062 45.4982 63.1062C46.1074 63.1062 46.5968 63.5956 46.5968 64.2048V68.1399C46.5968 69.0787 47.3658 69.8478 48.3047 69.8478H55.3958C56.3346 69.8478 57.1037 69.0787 57.1037 68.1399V64.1948C57.1037 63.5856 57.593 63.0962 58.2023 63.0962C58.8115 63.0962 59.3009 63.5856 59.3009 64.1948V68.1399C59.3009 70.2972 57.5531 72.045 55.3958 72.045Z" fill="#215679"/>
<path d="M23.7953 72.045H16.7042C14.5469 72.045 12.7991 70.2972 12.7991 68.1399V64.1948C12.7991 63.5856 13.2885 63.0962 13.8977 63.0962C14.5069 63.0962 14.9963 63.5856 14.9963 64.1948V68.1399C14.9963 69.0787 15.7654 69.8478 16.7042 69.8478H23.7953C24.7342 69.8478 25.5032 69.0787 25.5032 68.1399V64.2048C25.5032 63.5956 25.9926 63.1062 26.6018 63.1062C27.2111 63.1062 27.7004 63.5956 27.7004 64.2048V68.1399C27.7004 70.2972 25.9426 72.045 23.7953 72.045Z" fill="#215679"/>
<path d="M57.8827 65.3034H14.2073C11.2809 65.3034 8.89392 62.9164 8.89392 59.9901V30.0575C8.89392 29.4483 9.38331 28.9589 9.99255 28.9589C10.6018 28.9589 11.0912 29.4483 11.0912 30.0575V59.9901C11.0912 61.7079 12.4894 63.1062 14.2073 63.1062H57.8827C59.6005 63.1062 60.9988 61.7079 60.9988 59.9901V11.261C60.9988 9.54314 59.6005 8.14489 57.8827 8.14489H14.2073C12.4894 8.14489 11.0912 9.54314 11.0912 11.261V25.1436C11.0912 25.7529 10.6018 26.2423 9.99255 26.2423C9.38331 26.2423 8.89392 25.7529 8.89392 25.1436V11.261C8.89392 8.33465 11.2809 5.94763 14.2073 5.94763H57.8827C60.809 5.94763 63.196 8.33465 63.196 11.261V60.0001C63.196 62.9264 60.809 65.3134 57.8827 65.3134V65.3034Z" fill="#215679"/>
<path d="M53.1885 8.14488C52.5793 8.14488 52.0899 7.65549 52.0899 7.04625V3.96011C52.0899 3.02129 51.3209 2.25225 50.3821 2.25225H21.7279C20.789 2.25225 20.02 3.02129 20.02 3.96011V7.04625C20.02 7.65549 19.5306 8.14488 18.9214 8.14488C18.3121 8.14488 17.8228 7.65549 17.8228 7.04625V3.96011C17.8228 1.80281 19.5806 0.0549927 21.7279 0.0549927H50.3821C52.5394 0.0549927 54.2872 1.8128 54.2872 3.96011V7.04625C54.2872 7.65549 53.7978 8.14488 53.1885 8.14488Z" fill="#215679"/>
<path d="M56.4845 42.6917H15.6056C14.2273 42.6917 13.0987 41.5731 13.0987 40.1848V16.864C13.0987 15.4857 14.2173 14.3571 15.6056 14.3571H56.4745C57.8528 14.3571 58.9813 15.4757 58.9813 16.864V40.1848C58.9813 41.5631 57.8627 42.6917 56.4745 42.6917H56.4845ZM15.6056 16.5643C15.4358 16.5643 15.2959 16.7042 15.2959 16.8739V40.1948C15.2959 40.3646 15.4358 40.5044 15.6056 40.5044H56.4745C56.6443 40.5044 56.7841 40.3646 56.7841 40.1948V16.8739C56.7841 16.7042 56.6443 16.5643 56.4745 16.5643H15.6056Z" fill="#215679"/>
<path d="M54.2372 11.261C54.2372 11.8402 53.7678 12.3097 53.1885 12.3097C52.6092 12.3097 52.1398 11.8402 52.1398 11.261C52.1398 10.6817 52.6092 10.2123 53.1885 10.2123C53.7678 10.2123 54.2372 10.6817 54.2372 11.261Z" fill="#215679"/>
<path d="M19.9601 11.261C19.9601 11.8402 19.4907 12.3097 18.9114 12.3097C18.3321 12.3097 17.8627 11.8402 17.8627 11.261C17.8627 10.6817 18.3321 10.2123 18.9114 10.2123C19.4907 10.2123 19.9601 10.6817 19.9601 11.261Z" fill="#215679"/>
<path d="M47.256 12.3596H24.834C24.2247 12.3596 23.7354 11.8702 23.7354 11.261C23.7354 10.6517 24.2247 10.1624 24.834 10.1624H47.256C47.8652 10.1624 48.3546 10.6517 48.3546 11.261C48.3546 11.8702 47.8652 12.3596 47.256 12.3596Z" fill="#215679"/>
<path d="M43.7005 58.5619H28.3896C27.6206 58.5619 26.9214 58.1025 26.6118 57.4033L23.1462 49.5432C22.8765 48.9439 22.9364 48.2548 23.296 47.6955C23.6555 47.1461 24.2648 46.8166 24.9239 46.8166H37.8278C38.4371 46.8166 38.9264 47.3059 38.9264 47.9152C38.9264 48.5244 38.4371 49.0138 37.8278 49.0138H25.3234L28.5694 56.3646H43.5507L46.7966 49.0138H42.7517C42.1424 49.0138 41.653 48.5244 41.653 47.9152C41.653 47.3059 42.1424 46.8166 42.7517 46.8166H47.1861C47.8453 46.8166 48.4545 47.1461 48.8141 47.6955C49.1736 48.2448 49.2336 48.9339 48.9639 49.5432L45.4982 57.4033C45.1886 58.1025 44.4895 58.5619 43.7204 58.5619H43.7005Z" fill="#215679"/>
<path d="M62.0974 58.5618H51.0113C50.5419 58.5618 50.1124 58.3321 49.8627 57.9426C49.6031 57.5531 49.5631 57.0637 49.7529 56.6342L51.9601 51.4807C52.2897 50.7116 53.0388 50.2223 53.8777 50.2223H62.1074C62.7167 50.2223 63.2061 50.7116 63.2061 51.3209C63.2061 51.9301 62.7167 52.4195 62.1074 52.4195H53.9476L52.2497 56.3646H62.0974C62.7067 56.3646 63.1961 56.854 63.1961 57.4632C63.1961 58.0724 62.7067 58.5618 62.0974 58.5618Z" fill="#215679"/>
<path d="M21.0787 58.5618H9.99253C9.38329 58.5618 8.8939 58.0724 8.8939 57.4632C8.8939 56.854 9.38329 56.3646 9.99253 56.3646H19.8402L18.1423 52.4195H9.98254C9.3733 52.4195 8.88391 51.9301 8.88391 51.3209C8.88391 50.7116 9.3733 50.2223 9.98254 50.2223H18.2123C19.0412 50.2223 19.8003 50.7216 20.1299 51.4807L22.3471 56.6342C22.5269 57.0637 22.4869 57.5531 22.2272 57.9426C21.9676 58.3321 21.5381 58.5618 21.0787 58.5618Z" fill="#215679"/>
<path d="M69.9676 31.4557H67.7204C66.5718 31.4557 65.643 30.5169 65.643 29.3783V15.4757C65.643 14.8665 66.1324 14.3771 66.7416 14.3771H69.9676C71.1162 14.3771 72.045 15.3159 72.045 16.4545V29.3783C72.045 30.5269 71.1162 31.4557 69.9676 31.4557ZM67.8303 29.2585H69.8477V16.5643H67.8303V29.2585Z" fill="#215679"/>
<path d="M66.7317 16.5644H62.0975C61.4882 16.5644 60.9988 16.075 60.9988 15.4657C60.9988 14.8565 61.4882 14.3671 62.0975 14.3671H66.7317C67.3409 14.3671 67.8303 14.8565 67.8303 15.4657C67.8303 16.075 67.3409 16.5644 66.7317 16.5644Z" fill="#215679"/>
<path d="M4.36958 31.4557H2.12239C0.973822 31.4557 0.0449829 30.5169 0.0449829 29.3783V16.4545C0.0449829 15.3059 0.983809 14.3771 2.12239 14.3771H5.34835C5.95759 14.3771 6.44698 14.8665 6.44698 15.4757V29.3783C6.44698 30.5269 5.50815 31.4557 4.36958 31.4557ZM2.24224 29.2585H4.25971V16.5643H2.24224V29.2585Z" fill="#215679"/>
<path d="M9.99254 16.5644H5.35833C4.74909 16.5644 4.2597 16.075 4.2597 15.4657C4.2597 14.8565 4.74909 14.3671 5.35833 14.3671H9.99254C10.6018 14.3671 11.0912 14.8565 11.0912 15.4657C11.0912 16.075 10.6018 16.5644 9.99254 16.5644Z" fill="#215679"/>
<path d="M40.9239 53.7878H31.1661C30.5568 53.7878 30.0674 53.2984 30.0674 52.6892C30.0674 52.0799 30.5568 51.5905 31.1661 51.5905H40.9239C41.5331 51.5905 42.0225 52.0799 42.0225 52.6892C42.0225 53.2984 41.5331 53.7878 40.9239 53.7878Z" fill="#215679"/>
</g>
<defs>
<clipPath id="clip0_1833_1548">
<rect width="72" height="72" fill="white" transform="translate(0.0449829 0.0449829)"/>
</clipPath>
</defs>
</svg>
